X:1
T:Recordare Domine
T:Recordare Domine
T:Jean de Castro
T:Source : Chansons, madrigaux et motetz à 3 parties---Anvers---P.Phalèse---1582. Editor: André Vierendeels (01/02/16).
T:Notes : Original clefs : G2, C2, C3 Editorial accidentals above the staff
T:©
T:©
T:©
T:©
T:©
T:©
T:©
C:Jean de Castro
Z:©
%%score [ 1 2 3 ]
L:1/8
Q:1/4=120
M:2/2
K:F
V:1 treble nm="Soprano 1" snm="S 1"
V:2 treble nm="Soprano 2" snm="S 2"
V:3 treble-8 nm="Tenor" snm="T"
V:1
 G8 | B8 | G8 | d8- | d8 | z4 d4 | f8 | d8 | g8 | e8 | f8 | d8- | d4 d4 | c6 c2 | B6 A2 | %15
w: Re-|cor-|da-|re,|_|re-|cor-|da-|re,|re-|cor-|da-|* re|Do- mi-|ne, [Do-|
 B2 c2 d4- | d4 c2 B2 | A8 | z4 B4- | B4 c4 | d8 | d4 f4- | f2 e2 d2 c2 | B2 A2 G4 | F4 c4- | %25
w: |* mi- *|ne]|te-|* sta-|men-|ti tu-|||i, tu-|
 c2 B2 B2 AG | A8 | =B4 d4- | d4 d4 | d4 e4 | f2 ed c4 | z4 d4- | d4 d4 | d4 f4 | f6 e2 | d6 cB | %36
w: ||i, et|dic An-|ge- *|* * * lo,|An-|* ge-|lo, ^[An-|ge- *||
 A4 z2 c2- | c2 A4 B2 | c2 F2 z2 c2- | c2 B4 G2 | ^F2 G2 z2 e2 | d2 d2 c4 | d4 z2 f2 | e2 d2 c4 | %44
w: lo] per-|* cu- ti-|en- ti, per-|* cu- ti-|en- ti, per-|cu- ti- en-|ti, per-|cu- ti- en-|
 d8- | d8 | A8 | A8 | z4 A4 | A4 f4- | f4 e4 | c4 d4- | d2 cB c4 | F4 z2 f2 | e2 c4 g2- | %55
w: ti|_|ces-|set,|ces-|set iam|_ ma-|nus tu-||a, et|non de- so-|
 g2 f4 e2- | e2 d4 A2 | z4 z2 f2 | e2 c2 g4 | f4 d4 | c8 | d8 | z4 d4- | d4 d4 | d8- | d8 | c8 | %67
w: * le- tur|_ ter- ra,|et|non de- so-|le- tur|ter-|ra,|et|_ non|per-||das|
 A8- | A4 G4 | B8- | B4 A4 | c8 | B8 | A8 | B4 B4- | B4 A4 | B4 A4 | z4 D2 E2 | F2 G2 A2 B2 | %79
w: o-|* mnem|a-|* ni-|mam|vi-|ven-|tem, et|_ non|per- das|o- *||
 c2 d2 e4 | f4 d4- | d2 d2 ^c4 | e4 f4- | f2 ed e4 | A8 | d8- | d8 | c8 | =B8 |] %89
w: |mnem a-|* ni- mam|vi- ven-||tem,|vi-||ven-|tem.|
V:2
 z8 | G8 | B8 | G8 | D4 B4- | B2 A2 B2 G2 | A6 GA | B4 A4 | G4 G4- | G4 A4- | A4 F4 | F6 E2 | %12
w: |Re-|cor-|da-|re Do-|||* mi-|ne, re-|* cor-|* da-||
 D4 G4- | G4 F4 | G8 | z4 F4 | G4 A4 | ^F4 F4 | G8- | G8 | z4 F4 | G4 A4 | B6 AG | F4 c2 B2 | %24
w: re Do-|* mi-|ne|te-|sta- men-|ti tu-|i,|_|te-|sta- men-|ti _ _|_ tu- *|
 A2 G2 A4- | A2 G2 G4- |"^#""^#" G2 FE F4 | G4 D4 | z4 D4 | G8 | z4 F4- | F4 F4 | F4 G4 | %33
w: |||* i,|et|dic,|et|_ dic|An- ge-|
 B4 A2 G2 | A4 F4- | F4 F4 | F4 G4 | A4 F4 | E2 D2 C4 | D4 B4 |"^-natural" A2 G2 GFGA | B4 A4 | %42
w: |lo, et|_ dic|An- ge-|lo per|cu- ti- en-|ti, per|cu- ti- en- * * *|* ti,|
 z2 B2 A4- | A2 F2 E4 | G8 | z4 D4- | D4 D4 | ^F8- | F8 | z4 A4 | G4 G4 | A8 | G8 | B4 A4 | %54
w: per- cu|_ ti- en-|ti|ces-|* set|iam,|_|ces-|set iam|ma-|us|tu- a,|
 z2 A2 G2 E2 | G2 D2 A4 | B4 A2 F2 | E2 D2 A4 | G4 G4 | z4 B4- | B2 AG A4 | B8 | z4 B4- | B4 G4 | %64
w: et non de-|so- le- tur|ter- ra, et|non de- so-|le- tur|ter-||ra,|et|_ non|
"^-natural" ^F4 G2 FE | D2 E2 F2 G2 | A2 G2 A2 B2 | c8 | C4 E4 | G4 D4 | D2 E2 F2 G2 | %71
w: per- * * *|||das|o- mnem|a- ni-|mam _ _ _|
 A2 G2 F2 E2 | D4 G4- |"^#" G4 F4 | G8 | z4 F4- | F4 F4 | F8- | F8 | G8 | z4 A4- | A4 A4 | G4 F4 | %83
w: _ _ _ _|* vi-|* ven-|tem,|et|_ ne|per-||das|a-|* ni-|mam vi-|
 G8 | F4 F4- | F4 D4 | F4 G4- |"^#" G4 F4 | G8 |] %89
w: ven-|tem, a-|* ni-|mam vi-|* ven-|tem.|
V:3
 z8 | z8 | z8 | G8 | B8 | G8 | d8 | z4 d4 | _e8 | c8 | d8 | B8- | B4 A2 G2 | A4 A4 | G8 | z4 B4- | %16
w: |||Re-|cor-|da-|re,|re-|cor-|da-|re|Do-||* mi-|ne|te-|
 B4 c4 | d8 | _e6 d2 | _e4 c4 | B8 | z8 | B8- | B4 c4 | d4 f4 | g8 | d8 | z4 B4- | B4 B4 | B4 c4 | %30
w: * sta-|men-||ti tu-|i||te-|* sta-|men- ti|tu-|i,|et|_ dic|An- ge-|
 d2 e2 f2 e2 | d2 c2 d2 c2 | B2 A2 G4 | z8 | d8- | d4 d4 | d4 e4 | f4 d4 | c2 B2 A4 | G4 g4 | %40
w: ||* * lo,||et|_ dic|An- ge-|lo per|cu ti- en-|ti, per|
 d2 e2 c4 | B4 z2 f2 | B2 B2 d4 | A8 | z4 G4 | G8 | z8 | d8- | d4 d4 | f8 | c8 | f8 | e8 | d4 d4 | %54
w: cu- ti- en-|ti, per|cu- ti- en-|ti,|ces-|set,||ces-|* set|iam|ma-|nus|tu-|a, et|
 c2 A2 c4 | B4 A4 | G4 d4 | z2 B2 A2 F2 | c4 c4 | d4 B4 | F8 | z4 B4- | B4 G4 | G2 A2 B2 c2 | %64
w: non de- so-|le- tur|ter- ra,|et non de-|so- le-|tur ter-|ra,|et|_ ne|per- * * *|
 d4 G2 A2 | B2 c2 d2 e2 | f4 f4- | f4 F4 | A4 c4 | G2 F2 G2 A2 | B2 c2 d4 | A8 | B6 c2 | d8 | G8 | %75
w: * das _|_ _ _ _|* o-|* mnem|a- ni-|mam _ _ _|_ _ _|vi-|ven- *||tem,|
 z4 d4- | d4 d4 | d8- | d8 | c8 | d8 | A8 |"^-natural" c8- | c4 c4 | d8 | B8- | B8 | A8 | G8 |] %89
w: et|_ ne|per-||das|o-|mnem|a-|* ni-|mam|vi-||ven-|tem.|

